X:195
T:Saint Anne's
M:C
L:1/8
K:D Major
de|fedf edcB|A2FA DAFA|B2GB EBGB|A2FA DAde|!
fedf edcB|A2FA DAFA|BGBd cABc|d2fe d2:|!
ag|f2fa fdfg|aggf g3f|edcB Acea|baa^g a2a=g|!
f2fa fdfg|aggf g3f|edcB ABce|d2fe d2:|!
